X: 5
T: Thor & Richard's Rant
C: Muriel Johnstone
B: Roy Goldring "14 Social Dances"
P: Tune for "Eric's Jubilee"
R: reel
Z: 2015 John Chambers <jc:trillian.mit.edu>
N: Fixed typo in next-to-last chord, written "A/D" but obviously "D/A".
M: 4/4
L: 1/8
K: A
% - - - - - - - - - - - - - - - - - - - - - - - - -
V: 1
cd |\
"A"ecA2 "A/C#"A2Bc | "E7"dBE2 "E7/G#"E2FG | "A"Aaga "A/C#"fedc | "Bm"d2B2 "E7"B2cd |
"A"ceA2 "A/C#"A2Bc | "E7"BdE2 "E7/G#"E2FG | "F#m"Aaga "Bm/D"fa"E7"ed | "A"c2"D/A"A2 "A"A2 :|
|: fg |\
"A"aAce "A/C#"agfe | "D"fAdf "A/C#"eEAc | "A"eAce "F#m"aedc | "Bm"d2B2 "E7"B2dc |
"E7"BdE2 "E7/G#"EBcd | "A"ceAG "A/C#"Aefg | "F#m"a2ga "Bm/D"fa"E7"ed | "A"c2"D/A"A2  "A"A2 :|
% - - - - - - - - - - - - - - - - - - - - - - - - -
V: 2 clef=bass middle=d
z2 |\
A2[a2e2] c2[a2e2] | e2b2 g2b2 | a2c'2 c2a2 | B2[b2f2] e2[d'2g2] |
A2[a2e2] c2[a2e2] | e2b2 g2b2 | [c'4a4f4] [d'2b2d2][d'2g2e2] | [e'2c'2a2][f'2d'2a2] [e'2c'2a2] :|
|: z2 |\
A2[a2e2] c2[a2e2] | d2[a2f2] c2[a2e2] | A2[a2e2] F2f2 | B2[b2f2] e2[d'2g2] |
e2b2 g2b2 | a2c'2 c2a2 | [c'4a4f4] [d'2b2d2][d'2g2e2] | [e'2c'2a2][f'2d'2a2] [e'2cc'2a2] :|
